X:1
T:Dorking, LM
T:Dorking, LM
T:Clement Powell, 1904
T:Public Domain Courtesy of the Cyber Hymnal™
C:Clement Powell, 1904
Z:Public Domain
Z:Courtesy of the Cyber Hymnal™
%%score ( 1 2 ) ( 3 4 )
L:1/8
Q:1/4=110
M:4/4
K:E
V:1 treble 
V:2 treble 
V:3 bass 
V:4 bass 
V:1
 [B,E]2 | [EA]2 [B,A]2 [B,G]2 E2 | [Ec]2 [Dc]2 [EB]2 E2 | [CE]2 [DF]2 [EG]2 [Gc]2 | %4
 B2 z !fermata![DB]2 [DG]2 x | E2 [DG]2 [Cc]2 [GB]2 | [FA]2 [^EG]2 [FA]2 [DF]2 | %7
 [EB]2 E2 A2 [EG]2 | [EF]2 [DF]2 !fermata!E2 |] %9
V:2
 x2 | x6 E2 | x6 (ED) | x8 | F3 (^A2 E) x2 | E2 x6 | x8 | x2 E2 (CD) x2 | x4 E2 |] %9
V:3
 [E,G,]2 | [C,A,]2 [D,F,]2 E,2 [G,B,]2 | A,2 [F,A,]2 [G,B,]2 [G,B,]2 | %3
 ([A,C][G,B,]) [F,A,]2 [E,B,]2 [C,E]2 | D2 [F,C]2 !fermata![B,,B,]2 [B,,B,]2 | %5
 [C,G,]2 [B,,G,]2 [A,,A,]2 [B,,=D]2 | [C,C]2 [C,B,]2 [F,A,]2 [A,,B,]2 | %7
 [G,,B,]2 [C,G,]2 [F,,A,]2 ([G,,B,][A,,C]) | [B,,F,]2 [B,,A,]2 !fermata![E,G,]2 |] %9
V:4
 x2 | x4 E,2 x2 | A,2 x6 | x8 | (D,E,) x6 | x8 | x8 | x8 | x6 |] %9

